icons/src/svg/report.svg

<svg width="32" height="32" viewBox="0 0 32 32" fill="none" xmlns="http://www.w3.org/2000/svg">
<path fill-rule="evenodd" clip-rule="evenodd" d="M22 6C22 4.89543 22.8954 4 24 4H26C27.1046 4 28 4.89543 28 6V26C28 27.1046 27.1046 28 26 28H24C22.8954 28 22 27.1046 22 26V6ZM26 6H24V26H26V6ZM13 11C13 9.89543 13.8954 9 15 9H17C18.1046 9 19 9.89543 19 11V26C19 27.1046 18.1046 28 17 28H15C13.8954 28 13 27.1046 13 26V11ZM17 11H15V26H17V11ZM4 16C4 14.8954 4.89543 14 6 14H8C9.10457 14 10 14.8954 10 16V26C10 27.1046 9.10457 28 8 28H6C4.89543 28 4 27.1046 4 26V16ZM8 16H6V26H8V16Z" fill="#0D0F13"/>
</svg>

<svg fill="none" xmlns="http://www.w3.org/2000/svg" viewBox="0 0 32 32">
  <path fill-rule="evenodd" clip-rule="evenodd" d="M22 6a2 2 0 0 1 2-2h2a2 2 0 0 1 2 2v20a2 2 0 0 1-2 2h-2a2 2 0 0 1-2-2V6Zm4 0h-2v20h2V6Zm-13 5a2 2 0 0 1 2-2h2a2 2 0 0 1 2 2v15a2 2 0 0 1-2 2h-2a2 2 0 0 1-2-2V11Zm4 0h-2v15h2V11ZM4 16a2 2 0 0 1 2-2h2a2 2 0 0 1 2 2v10a2 2 0 0 1-2 2H6a2 2 0 0 1-2-2V16Zm4 0H6v10h2V16Z" fill="currentColor"/>
</svg>
